public/img/icon/extension.svg

<svg fill="none" height="20" viewBox="0 0 20 20" width="20" xmlns="http://www.w3.org/2000/svg"><path clip-rule="evenodd" d="m11.4375 3.875c0-1.03553-.8394-1.875-1.87499-1.875-1.03553 0-1.875.83947-1.875 1.875h-3.75001c-.51777 0-.9375.41973-.9375.9375v3.75c1.03554 0 1.875.83947 1.875 1.875 0 1.0355-.83946 1.875-1.875 1.875v3.75c0 .5178.41973.9375.9375.9375h11.25c.5178 0 .9375-.4197.9375-.9375v-3.75c1.0356 0 1.875-.8395 1.875-1.875 0-1.03552-.8394-1.87498-1.875-1.875v-3.75c0-.51777-.4197-.9375-.9375-.9375zm-7.03125 9.528v2.1908h10.31255v-10.31255h-10.31255v2.19076c1.10857.52663 1.87501 1.65655 1.87501 2.96549 0 1.3089-.76644 2.4389-1.87501 2.9655z" fill="#1e1e1e" fill-rule="evenodd"/></svg>

<svg width="20" height="20" viewBox="0 0 20 20" fill="none" xmlns="http://www.w3.org/2000/svg">
<path fill-rule="evenodd" clip-rule="evenodd" d="M11.4375 3.875C11.4375 2.83947 10.5981 2 9.56251 2C8.52698 2 7.68751 2.83947 7.68751 3.875H3.9375C3.41973 3.875 3 4.29473 3 4.8125V8.5625C4.03554 8.5625 4.875 9.40197 4.875 10.4375C4.875 11.473 4.03554 12.3125 3 12.3125V16.0625C3 16.5803 3.41973 17 3.9375 17H15.1875C15.7053 17 16.125 16.5803 16.125 16.0625V12.3125C17.1606 12.3125 18 11.473 18 10.4375C18 9.40198 17.1606 8.56252 16.125 8.5625V4.8125C16.125 4.29473 15.7053 3.875 15.1875 3.875H11.4375ZM4.40625 13.403V15.5938H14.7188V5.28125H4.40625V7.47201C5.51482 7.99864 6.28126 9.12856 6.28126 10.4375C6.28126 11.7464 5.51482 12.8764 4.40625 13.403Z" fill="#1E1E1E"/>
</svg>
